X: 18
T: Humours Of Ennistymon, The
Z: Benjamin Glauser
S: https://thesession.org/tunes/228#setting47027
R: jig
M: 6/8
L: 1/8
K: Gmaj
|:A|BAB GBd|cBc ABc|BAB GBd|cAG FGA|
BAB GBd|cBc ABc|ded cAF|AGF G2:|
|:e|fgf fed|cAG FGA|d2 g gfg|afd d2 e|
fgf fed|cAG FGA|BdB cAF|AGF G2:|
d|gdB gdB|ecA ecA|BdB GBd|cAG FGA|
gdB gdB|ecA ecA|BdB GBd|cAF G2 d|
gdB gdB|ecA ecA|BdB GBd|cAG FGA|
BAB GBd|cBc ABc|ded cAF|AGF G2||

